brandFactory_export/3.Masa/Data virus_3Masa.svg

<?xml version="1.0" encoding="UTF-8"?>
<svg width="24px" height="24px" viewBox="0 0 24 24" version="1.1" xmlns="http://www.w3.org/2000/svg" xmlns:xlink="http://www.w3.org/1999/xlink">
    <title>3.Masa/Data virus_3Masa</title>
    <g id="Symbols" stroke="none" stroke-width="1" fill="none" fill-rule="evenodd">
        <g id="3.Masa/Data-virus_3Masa" fill="#5CB615" fill-rule="nonzero">
            <path d="M7.70756303,17.4285714 C9.20336134,17.4285714 9.61344538,16.8806723 9.61344538,14.8739496 C9.61344538,13.6168067 9.43193277,12.9445378 9.00840336,12.6252101 C8.73277311,12.4201681 8.30588235,12.3193277 7.70756303,12.3193277 C7.10588235,12.3193277 6.67563025,12.4235294 6.4,12.6319328 C5.97983193,12.9546218 5.80168067,13.6235294 5.80168067,14.8739496 C5.80504202,16.8806723 6.21176471,17.4285714 7.70756303,17.4285714 Z M7.71092437,10.8 C6.4302521,10.8 6.4302521,11.0588235 6.4302521,11.4184874 C6.4302521,11.4252101 6.43361345,11.4319328 6.43361345,11.4386555 C6.79327731,11.3176471 7.21008403,11.2504202 7.70756303,11.2504202 C8.20504202,11.2504202 8.62521008,11.3176471 8.98823529,11.4386555 L8.99159664,11.4151261 C8.98823529,11.0588235 8.98823529,10.8 7.71092437,10.8 L7.71092437,10.8 Z M10.4537815,10.8067227 C10.4369748,10.5109244 10.6621849,10.2588235 10.9579832,10.2453782 L10.9613445,10.2453782 C11.2571429,10.205042 11.5092437,10.4571429 11.5260504,10.7529412 L11.5865546,11.9092437 C11.6,12.1546218 11.4420168,12.3764706 11.2067227,12.4470588 L10.3529412,12.7058824 C10.5176471,13.092437 10.605042,13.5294118 10.6487395,13.9731092 L11.3008403,13.9731092 C11.5966387,13.9731092 11.8352941,14.2117647 11.8352941,14.507563 L11.8352941,15.2739496 C11.8352941,15.5697479 11.5966387,15.8084034 11.3008403,15.8084034 C11.005042,15.8084034 10.7663866,15.5697479 10.7663866,15.2739496 L10.7663866,15.0420168 L10.6823529,15.0420168 C10.6756303,15.5932773 10.6252101,16.1243697 10.497479,16.6016807 L11.210084,16.8168067 C11.4453782,16.887395 11.6033613,17.112605 11.589916,17.3579832 L11.5294118,18.5109244 C11.512605,18.7966387 11.2773109,19.0184874 10.994958,19.0184874 L10.9680672,19.0184874 C10.6722689,19.005042 10.4470588,18.7529412 10.4605042,18.4571429 L10.5008403,17.7210084 L10.0336134,17.5798319 C9.59663866,18.1378151 8.8907563,18.5008403 7.71428571,18.5008403 C6.53445378,18.5008403 5.82857143,18.1344538 5.39159664,17.5731092 L4.90756303,17.7210084 L4.94789916,18.4571429 C4.96470588,18.7529412 4.73613445,19.0016807 4.44369748,19.0184874 L4.41008403,19.0184874 C4.12436975,19.0184874 3.89243697,18.7966387 3.87563025,18.5109244 L3.81512605,17.3579832 C3.80168067,17.112605 3.95630252,16.887395 4.19495798,16.8168067 L4.92773109,16.5983193 C4.80336134,16.1210084 4.75294118,15.589916 4.74621849,15.0420168 L4.66218487,15.0420168 L4.66218487,15.2739496 C4.66218487,15.5697479 4.42352941,15.8084034 4.12773109,15.8084034 C3.83193277,15.8084034 3.59327731,15.5697479 3.59327731,15.2739496 L3.59327731,14.507563 C3.59327731,14.2117647 3.83193277,13.9731092 4.12773109,13.9731092 L4.78319328,13.9731092 C4.82352941,13.5294118 4.91092437,13.0957983 5.07563025,12.712605 L4.20168067,12.4470588 C3.96638655,12.3764706 3.80840336,12.1546218 3.82184874,11.9092437 L3.88235294,10.7529412 C3.89915966,10.4571429 4.14453782,10.2084034 4.44705882,10.2453782 C4.74285714,10.2621849 4.97142857,10.5142857 4.95462185,10.810084 L4.91428571,11.5462185 L5.39495798,11.6941176 C5.38487395,11.6067227 5.37478992,11.5193277 5.37478992,11.4252101 C5.37478992,9.73445378 7.02184874,9.73445378 7.72436975,9.73445378 C8.42689076,9.73445378 10.0739496,9.73445378 10.0739496,11.4252101 C10.0739496,11.5159664 10.0605042,11.6 10.0537815,11.687395 L10.507563,11.5495798 L10.4537815,10.8067227 L10.4537815,10.8067227 Z M7.67731092,13.1159664 C7.97310924,13.1159664 8.21176471,13.3546218 8.21176471,13.6504202 L8.21176471,16.5176471 C8.21176471,16.8134454 7.97310924,17.0521008 7.67394958,17.0521008 C7.37815126,17.0521008 7.1394958,16.8134454 7.13613445,16.5210084 L7.13613445,13.6504202 C7.1394958,13.3546218 7.38151261,13.1159664 7.67731092,13.1159664 L7.67731092,13.1159664 Z M10.7226891,3.83865546 C9.38151261,3.43865546 8.56134454,2.8907563 8.34621849,2.26218487 C8.34621849,2.25210084 8.34621849,2.25210084 8.33613445,2.24201681 C8.5512605,1.61344538 9.36806723,1.05882353 10.702521,0.658823529 C12.1210084,0.235294118 13.989916,0 15.9731092,0 C17.9563025,0 19.8285714,0.235294118 21.2336134,0.658823529 C22.6386555,1.0789916 23.4352941,1.63697479 23.610084,2.29579832 C23.610084,2.29579832 23.6,2.30588235 23.6,2.31596639 C23.3613445,2.92436975 22.5579832,3.4487395 21.2436975,3.83865546 C19.8285714,4.26218487 17.9663866,4.49751402 15.9831933,4.49751402 C14,4.50084034 12.1411765,4.26218487 10.7226891,3.83865546 L10.7226891,3.83865546 Z M13.9159664,10.4403361 L13.9159664,10.0806723 C12.4806723,10.0806723 11.5764706,9.47563025 10.7663866,8.94453782 C10.6016807,8.83697479 10.4369748,8.72941176 10.2689076,8.62521008 C10.2487395,8.61512605 10.2285714,8.60168067 10.2117647,8.58487395 C10.0369748,8.48403361 9.85546218,8.38991597 9.67394958,8.30252101 C9.6605042,8.28907563 9.64369748,8.2789916 9.62352941,8.27226891 C9.42857143,8.18487395 9.23361345,8.09747899 9.01176471,8.04033613 C8.77310924,7.9697479 8.52773109,7.92268908 8.2789916,7.89579832 L8.26890756,7.89579832 C8.08403361,7.87563025 7.9092437,7.85546218 7.70420168,7.85546218 C6.28907563,7.85546218 5.48907563,8.37983193 4.64201681,8.94453782 C3.82184874,9.48907563 2.90756303,10.0907563 1.51260504,10.0907563 L1.49243697,10.0907563 C1.50252101,11.6941176 1.5697479,15.3478992 1.87226891,17.0655462 C2.20504202,18.9714286 5.93613445,21.2033613 7.70420168,22.0773109 C8.11428571,21.8756303 8.61176471,21.6 9.16638655,21.2806723 L9.17647059,21.2806723 C9.57647059,21.0386555 10.0067227,20.7764706 10.4235294,20.4840336 C10.4336134,20.4739496 10.4537815,20.4638655 10.4739496,20.4470588 C11.0957983,20.0336134 11.6840336,19.5697479 12.2285714,19.0588235 L12.2588235,19.0285714 C12.6016807,18.7092437 12.8941176,18.3697479 13.1159664,18.0268908 C13.1260504,18.0268908 13.1260504,18.0168067 13.1361345,18.0067227 C13.2436975,17.8420168 13.3310924,17.6773109 13.4084034,17.5092437 C13.4689076,17.3647059 13.5260504,17.210084 13.5462185,17.0621849 C13.5764706,16.897479 13.6033613,16.702521 13.6235294,16.497479 L13.6235294,16.487395 C13.6436975,16.3327731 13.6638655,16.1680672 13.6840336,15.9932773 C13.6840336,15.9529412 13.6941176,15.9058824 13.6941176,15.8554622 C13.7411765,15.3310924 13.7781513,14.7495798 13.8117647,14.1445378 C13.8218487,14.0571429 13.8218487,13.9697479 13.8218487,13.8823529 C13.8420168,13.6504202 13.8521008,13.4151261 13.8521008,13.1798319 C13.8588235,13.005042 13.8722689,12.8403361 13.8722689,12.6756303 C13.8823529,12.5378151 13.8823529,12.4033613 13.8823529,12.2689076 C13.892437,12.1210084 13.892437,11.9764706 13.892437,11.8319328 C13.8991597,11.7142857 13.8991597,11.589916 13.8991597,11.4722689 L13.8991597,11.4655462 C13.9092437,11.0823529 13.9092437,10.7495798 13.9159664,10.4403361 L13.9159664,10.4403361 Z M15.9831933,10.5378151 C15.7781513,10.5378151 15.5731092,10.5277311 15.3781513,10.5277311 C15.3680672,10.8268908 15.3680672,11.1764706 15.3579832,11.5563025 C15.5630252,11.5563025 15.7680672,11.5663866 15.9831933,11.5663866 C18.0705882,11.5663866 20.0403361,11.3243697 21.5394958,10.8672269 C22.3865546,10.6252101 23.1092437,10.2756303 23.6537815,9.8487395 L23.6537815,14.4235294 C23.3983193,14.907563 22.6386555,15.5394958 21.2369748,15.9663866 C19.8319328,16.3831933 17.9596639,16.6285714 15.9798319,16.6285714 C15.6773109,16.6285714 15.3848739,16.6084034 15.0857143,16.5983193 C15.0554622,16.8504202 15.0252101,17.102521 14.9882353,17.307563 L14.9882353,17.3176471 C14.9680672,17.4151261 14.9310924,17.5226891 14.9008403,17.6201681 C15.2605042,17.6403361 15.6134454,17.6605042 15.9831933,17.6605042 C18.0705882,17.6605042 20.0403361,17.405042 21.5394958,16.9613445 C22.3865546,16.7058824 23.1092437,16.3495798 23.6537815,15.9294118 L23.6537815,19.989916 C23.6537815,20.7966387 22.8436975,21.4554622 21.2268908,21.9428571 C19.8117647,22.3596639 17.9394958,22.5915966 15.9697479,22.5915966 C14.0504202,22.5915966 12.2453782,22.3697479 10.8302521,21.9731092 C9.92268908,22.5579832 8.98151261,23.0857143 8.01344538,23.5563025 C7.91596639,23.6 7.80840336,23.6201681 7.70084034,23.6235294 C7.59327731,23.6201681 7.48907563,23.5966387 7.38823529,23.5563025 C6.74285714,23.2470588 0.978151261,20.4504202 0.433613445,17.3109244 C0.0134453782,14.9579832 0.0334587114,9.52941176 0.0334587114,9.29411765 C0.0369747899,8.8907563 0.366386555,8.56470588 0.769747899,8.56806723 C0.823529412,8.56806723 0.877310924,8.57478992 0.927731092,8.58823529 C2.23529412,8.79327731 2.93445378,8.32605042 3.83193277,7.73445378 C4.77647059,7.11260504 5.8487395,6.40336134 7.70084034,6.40336134 L7.71092437,6.40336134 C7.90588235,6.40336134 8.0907563,6.41344538 8.26554622,6.43361345 L8.26554622,3.80168067 C8.78319328,4.21848739 9.49243697,4.56806723 10.4201681,4.83361345 C11.9327731,5.2907563 13.902521,5.53277311 15.9764706,5.53277311 C18.0504202,5.53277311 20.0235294,5.2907563 21.5327731,4.83361345 C22.4268908,4.57142857 23.1327731,4.23865546 23.6470588,3.82521008 L23.6470588,8.35966387 C23.3915966,8.83361345 22.6319328,9.47563025 21.2302521,9.90252101 C19.8352941,10.3159664 17.9630252,10.5378151 15.9831933,10.5378151 Z" id="Data-virus_3Masa"></path>
        </g>
    </g>
</svg>

<svg width="24" height="24" viewBox="0 0 24 24" xmlns="http://www.w3.org/2000/svg"><path d="M7.708 17.429c1.495 0 1.905-.548 1.905-2.555 0-1.257-.181-1.93-.605-2.249-.275-.205-.702-.306-1.3-.306-.602 0-1.032.105-1.308.313-.42.323-.598.992-.598 2.242.003 2.007.41 2.555 1.906 2.555zM7.71 10.8c-1.28 0-1.28.259-1.28.618 0 .007.003.014.003.02a3.96 3.96 0 011.274-.188c.497 0 .917.068 1.28.189l.004-.024c-.004-.356-.004-.615-1.281-.615zm2.743.007a.53.53 0 01.504-.562h.003c.296-.04.548.212.565.508l.06 1.156a.532.532 0 01-.38.538l-.853.259c.165.386.252.823.296 1.267h.652c.296 0 .534.239.534.535v.766a.534.534 0 11-1.069 0v-.232h-.084c-.006.551-.057 1.082-.185 1.56l.713.215c.235.07.393.296.38.541l-.06 1.153a.537.537 0 01-.535.507h-.027a.534.534 0 01-.507-.56l.04-.737-.467-.141c-.437.558-1.143.92-2.32.92-1.18 0-1.885-.366-2.322-.927l-.484.148.04.736a.534.534 0 01-.504.561H4.41a.535.535 0 01-.534-.507l-.06-1.153a.533.533 0 01.379-.541l.733-.219c-.125-.477-.175-1.008-.182-1.556h-.084v.232a.534.534 0 11-1.069 0v-.766c0-.296.239-.535.535-.535h.655c.04-.444.128-.877.293-1.26l-.874-.266a.532.532 0 01-.38-.538l.06-1.156c.017-.296.263-.545.565-.508a.537.537 0 01.508.565l-.04.736.48.148a2.297 2.297 0 01-.02-.269c0-1.69 1.647-1.69 2.35-1.69.702 0 2.349 0 2.349 1.69 0 .091-.013.175-.02.262l.454-.137-.054-.743zm-2.777 2.309c.296 0 .535.239.535.534v2.868a.538.538 0 01-1.076.003v-2.87a.542.542 0 01.541-.535zm3.046-9.277c-1.341-.4-2.162-.948-2.377-1.577 0-.01 0-.01-.01-.02.215-.629 1.032-1.183 2.367-1.583C12.12.235 13.99 0 15.973 0c1.983 0 3.856.235 5.26.659 1.406.42 2.202.978 2.377 1.637 0 0-.01.01-.01.02-.239.608-1.042 1.133-2.356 1.523-1.415.423-3.278.659-5.26.659-1.984.003-3.843-.236-5.261-.66zm3.193 6.601v-.36c-1.435 0-2.34-.604-3.15-1.135-.164-.108-.329-.216-.497-.32a.22.22 0 01-.057-.04 8.186 8.186 0 00-.538-.282.127.127 0 00-.05-.03c-.195-.088-.39-.176-.612-.233a4.157 4.157 0 00-.733-.144h-.01c-.185-.02-.36-.04-.565-.04-1.415 0-2.215.524-3.062 1.089-.82.544-1.734 1.146-3.13 1.146h-.02c.01 1.603.078 5.257.38 6.975.333 1.905 4.064 4.137 5.832 5.011.41-.201.908-.477 1.462-.796h.01c.4-.242.83-.505 1.248-.797.01-.01.03-.02.05-.037.622-.413 1.21-.877 1.755-1.388l.03-.03c.343-.32.635-.66.857-1.002.01 0 .01-.01.02-.02.108-.165.195-.33.272-.498.06-.144.118-.299.138-.447.03-.165.057-.36.078-.565v-.01c.02-.154.04-.319.06-.494 0-.04.01-.087.01-.138a51.68 51.68 0 00.118-1.71c.01-.088.01-.175.01-.263.02-.232.03-.467.03-.702.007-.175.02-.34.02-.504.01-.138.01-.273.01-.407.01-.148.01-.293.01-.437.007-.118.007-.242.007-.36v-.006c.01-.384.01-.716.017-1.026zm2.067.098c-.205 0-.41-.01-.605-.01-.01.299-.01.648-.02 1.028.205 0 .41.01.625.01 2.088 0 4.057-.242 5.556-.699.848-.242 1.57-.591 2.115-1.018v4.575c-.256.484-1.015 1.115-2.417 1.542-1.405.417-3.277.663-5.257.663-.303 0-.595-.02-.894-.03-.03.251-.06.504-.098.709v.01c-.02.097-.057.205-.087.302.36.02.712.04 1.082.04 2.088 0 4.057-.255 5.556-.699.848-.255 1.57-.611 2.115-1.032v4.06c0 .808-.81 1.466-2.427 1.954-1.415.417-3.288.649-5.257.649-1.92 0-3.725-.222-5.14-.619a26.946 26.946 0 01-2.817 1.583.828.828 0 01-.312.068.914.914 0 01-.313-.068c-.645-.309-6.41-3.106-6.954-6.245-.42-2.353-.4-7.782-.4-8.017a.732.732 0 01.894-.706c1.307.205 2.006-.262 2.904-.854.944-.621 2.017-1.33 3.869-1.33h.01c.195 0 .38.01.555.03V3.802c.517.416 1.226.766 2.154 1.032 1.513.457 3.483.699 5.556.699 2.074 0 4.048-.242 5.557-.7.894-.262 1.6-.594 2.114-1.008V8.36c-.255.474-1.015 1.116-2.417 1.543-1.395.413-3.267.635-5.247.635z" fill="#5CB615" fill-rule="nonzero"/></svg>
